packages/foundations/assets/icons/functional/images/maps/compass_20.svg

<svg xmlns="http://www.w3.org/2000/svg" width="20" height="20" fill="none"><g clip-path="url(#a)"><path fill="#1A1C1F" fill-rule="evenodd" d="M10 1c4.962 0 9 4.037 9 9s-4.038 9-9 9-9-4.038-9-9 4.038-9 9-9m0 2c-3.86 0-7 3.141-7 7s3.14 7 7 7 7-3.141 7-7-3.14-7-7-7m1.397 2.727a.999.999 0 0 1 1.612.932l-.654 4.269a1 1 0 0 1-.36.627l-3.392 2.739a1 1 0 0 1-1.616-.933l.677-4.307a1 1 0 0 1 .363-.625zm-.753 3.166-1.065.853-.213 1.361 1.072-.865z" clip-rule="evenodd"/></g><defs><clipPath id="a"><path fill="#fff" d="M0 0h20v20H0z"/></clipPath></defs></svg>

<svg width="20" height="20" viewBox="0 0 20 20" fill="none" xmlns="http://www.w3.org/2000/svg">
<g clip-path="url(#clip0_186_9)">
<path fill-rule="evenodd" clip-rule="evenodd" d="M10 1C14.962 1 19 5.037 19 10C19 14.963 14.962 19 10 19C5.038 19 1 14.962 1 10C1 5.038 5.038 1 10 1ZM10 3C6.14 3 3 6.141 3 10C3 13.859 6.14 17 10 17C13.86 17 17 13.859 17 10C17 6.141 13.86 3 10 3ZM11.397 5.727C11.718 5.469 12.165 5.435 12.522 5.641C12.877 5.848 13.071 6.252 13.009 6.659L12.355 10.928C12.317 11.175 12.189 11.399 11.995 11.555L8.603 14.294C8.282 14.553 7.833 14.589 7.475 14.382C7.117 14.176 6.923 13.769 6.987 13.361L7.664 9.054C7.703 8.808 7.832 8.585 8.027 8.429L11.397 5.727ZM10.644 8.893L9.579 9.746L9.366 11.107L10.438 10.242L10.644 8.893Z" fill="#1A1C1F"/>
</g>
<defs>
<clipPath id="clip0_186_9">
<rect width="20" height="20" fill="white"/>
</clipPath>
</defs>
</svg>
